Yaru++/actions/16/align-vertical-baseline.svg

<svg viewBox="0 0 24 24" xmlns="http://www.w3.org/2000/svg">
  <path d="m7.0957031 7c.26954 1.7782.9670613 3.648115 2.5507813 5.353516-.7202322.906431-1.6292966 1.787006-2.8046875 2.646484h-2.8417969v1h1.3261719c-.4984522.299036-1.026181.596455-1.6074219.890625l.5957031 1.109375c1.2442915-.629738 2.3105691-1.30167 3.2402344-2h12.4453125v-1h-11.2285156c2.8187686-2.540017 4.0509936-5.3680405 4.9472656-8h-1.357422c-.51195 1.5034-1.103148 2.9317935-1.986328 4.308594-1.26473-1.4163005-1.8567275-2.796394-2.0859375-4.308594zm10.0410159 0c-1.17273.025-2.072003.2175469-2.726563.4980469l.367188 1.2617187c.31364-.1021 1.499852-.4589844 2.195312-.4589844h.095703c.96819.0380002 1.03711.3686844 1.03711 1.1464844v.3066406l-.50586.078125c-2.34549.3187998-3.599609.5864318-3.599609 2.2695308 0 1.173002.913578 1.898438 2.236328 1.898438.91364 0 1.513333-.357197 2.126953-.841797l.191407.714844h1.445312v-4.7187501c0-1.4408-1.062849-2.1542969-2.699219-2.1542969zm.96875 3.75v1.568359c-.50453.3188-.886466.546875-1.541016.546875-.58637 0-.873047-.343625-.873047-.828125 0-.918.858173-1.07259 1.908203-1.21289z" fill="#808080"/>
</svg>

<svg xmlns="http://www.w3.org/2000/svg" viewBox="0 0 24 24">
 <defs>
  <style id="current-color-scheme" type="text/css">
   .ColorScheme-Text { color:#808080; }
  </style>
 </defs>
 <path fill="#808080" class="ColorScheme-Text" d="M 7.0957031 7 C 7.3652431 8.7782 8.0627644 10.648115 9.6464844 12.353516 C 8.9262522 13.259947 8.0171878 14.140522 6.8417969 15 L 4 15 L 4 16 L 5.3261719 16 C 4.8277197 16.299036 4.2999909 16.596455 3.71875 16.890625 L 4.3144531 18 C 5.5587446 17.370262 6.6250222 16.69833 7.5546875 16 L 20 16 L 20 15 L 8.7714844 15 C 11.590253 12.459983 12.822478 9.6319595 13.71875 7 L 12.361328 7 C 11.849378 8.5034 11.25818 9.9317935 10.375 11.308594 C 9.11027 9.8922935 8.5182725 8.5122 8.2890625 7 L 7.0957031 7 z M 17.136719 7 C 15.963989 7.025 15.064716 7.2175469 14.410156 7.4980469 L 14.777344 8.7597656 C 15.090984 8.6576656 16.277196 8.3007812 16.972656 8.3007812 L 17.068359 8.3007812 C 18.036549 8.3387814 18.105469 8.6694656 18.105469 9.4472656 L 18.105469 9.7539062 L 17.599609 9.8320312 C 15.254119 10.150831 14 10.418463 14 12.101562 C 14 13.274564 14.913578 14 16.236328 14 C 17.149968 14 17.749661 13.642803 18.363281 13.158203 L 18.554688 13.873047 L 20 13.873047 L 20 9.1542969 C 20 7.7134969 18.937151 7 17.300781 7 L 17.136719 7 z M 18.105469 10.75 L 18.105469 12.318359 C 17.600939 12.637159 17.219003 12.865234 16.564453 12.865234 C 15.978083 12.865234 15.691406 12.521609 15.691406 12.037109 C 15.691406 11.119109 16.549579 10.964519 17.599609 10.824219 L 18.105469 10.75 z"/>
</svg>
